icons/1_Primary/Moodle.svg

<svg width="1024" height="1024" viewBox="0 0 1024 1024" fill="none" xmlns="http://www.w3.org/2000/svg">
<g clip-path="url(#clip0_2_2838)">
<path d="M512 1024C794.77 1024 1024 794.77 1024 512C1024 229.23 794.77 0 512 0C229.23 0 0 229.23 0 512C0 794.77 229.23 1024 512 1024Z" fill="#F8C18C"/>
<path d="M195.21 497C198.377 496.998 201.54 496.791 204.68 496.38C204.68 497.11 204.62 497.85 204.62 498.62V566.19H170.24V492.91C178.293 495.594 186.722 496.975 195.21 497ZM764.6 565.9V372.9H730.16V565.9H764.6ZM719.8 565.9V372.9H686.3V466C679.87 458.14 669.2 451.28 650.99 451.28C634.83 451.28 620.73 458.08 612.12 467.88C602.387 478.927 597.52 492.653 597.52 509.06C597.52 525.66 602.52 539.63 612.43 550.86C622.34 562.09 635.52 567.77 651.92 567.77C658.304 567.69 664.63 566.551 670.64 564.4C678 561.9 683.24 558.66 686.3 554.54V565.9H719.8ZM686.3 520.6C686.3 525.933 683.18 531.113 676.94 536.14C670.7 541.19 664.94 543.69 659.59 543.69C650.79 543.69 643.8 540.01 638.69 532.69C634.197 526.39 631.95 518.723 631.95 509.69C631.95 500.52 634.2 492.69 638.69 486.35C640.995 482.952 644.117 480.189 647.769 478.314C651.421 476.439 655.486 475.513 659.59 475.62C665.7 475.62 671.76 478.43 677.59 484.04C683.42 489.65 686.33 495.58 686.33 501.7L686.3 520.6ZM576 552.36C587.48 541.253 593.22 527.007 593.22 509.62C593.22 492.27 587.48 477.99 576 466.94C564.52 455.89 550.11 450.34 532.7 450.34C515.29 450.34 500.88 455.89 489.52 466.94C478.16 477.99 472.52 492.21 472.52 509.62C472.52 527.03 478.2 541.32 489.52 552.36C500.84 563.4 515.28 569 532.68 569C550.08 569 564.5 563.4 576 552.36ZM552.6 487.91C556.78 493.84 558.84 501.14 558.84 509.81C558.84 518.48 556.66 525.72 552.29 531.71C550.073 534.843 547.137 537.398 543.729 539.161C540.32 540.925 536.538 541.845 532.7 541.845C528.863 541.845 525.081 540.925 521.672 539.161C518.264 537.398 515.327 534.843 513.11 531.71C508.93 525.78 506.87 518.48 506.87 509.81C506.87 501.14 509.12 493.71 513.55 487.41C517.98 481.11 524.39 478 532.68 478C541.17 478 547.78 481.29 552.59 487.9L552.6 487.91ZM451.51 552.36C462.99 541.253 468.73 527.007 468.73 509.62C468.73 492.27 462.99 477.99 451.51 466.94C440.03 455.89 425.62 450.34 408.21 450.34C390.8 450.34 376.39 455.89 365.03 466.94C353.67 477.99 348.03 492.21 348.03 509.62C348.03 527.03 353.71 541.32 365.03 552.36C376.35 563.4 390.8 569 408.21 569C425.62 569 440.09 563.4 451.51 552.36ZM428.11 487.91C432.29 493.84 434.35 501.14 434.35 509.81C434.35 518.48 432.17 525.72 427.8 531.71C425.583 534.843 422.647 537.398 419.239 539.161C415.83 540.925 412.048 541.845 408.21 541.845C404.373 541.845 400.591 540.925 397.182 539.161C393.773 537.398 390.837 534.843 388.62 531.71C384.44 525.78 382.38 518.48 382.38 509.81C382.38 501.14 384.63 493.71 389.06 487.41C393.49 481.11 399.91 478 408.21 478C416.76 478 423.37 481.29 428.11 487.9V487.91ZM805.34 520.1H896C896 499.387 890.78 482.893 880.34 470.62C869.107 457.333 853.44 450.667 833.34 450.62C814.87 450.62 799.9 456.05 788.34 466.78C776.78 477.51 771 492.08 771 510.3C771 527.893 776.784 542.18 788.35 553.16C799.89 564.08 816.05 569.57 833.65 569.57C876.02 569.57 892.11 543.86 896.04 531.76L859.79 532.07C859.35 536.07 851.3 545.92 834.27 545.92C816.74 545.92 806.13 528.26 805.38 520.09L805.34 520.1ZM806.21 498.89C807.605 491.937 810.96 485.528 815.88 480.42C818.201 478.005 821.001 476.103 824.102 474.835C827.202 473.568 830.533 472.963 833.88 473.06C837.313 473.052 840.714 473.726 843.885 475.043C847.055 476.359 849.933 478.293 852.35 480.73C857.201 485.705 860.42 492.039 861.58 498.89H806.21ZM327.72 461.2C318.734 454.4 306.567 451 291.22 451C274.434 451 262.87 455 256.53 463C251.216 471.401 244.285 478.662 236.14 484.36C238.26 487.827 239.324 492.59 239.33 498.65V566.22H273.71V498.64C273.71 484.48 279.554 477.41 291.24 477.43C302.85 477.43 308.71 484.54 308.71 498.64V566.21H343.09V494.64C343.077 479.913 337.954 468.767 327.72 461.2ZM246.72 454.09C245.57 453.03 244.39 451.99 243.27 451.01C242.52 450.36 241.79 449.75 241.11 449.18L239.25 447.65C237.87 446.53 236.98 445.84 236.98 445.84L271.11 420.84L270.67 419.34C266.824 419.813 263.1 420.28 259.5 420.74C255.9 421.2 252.41 421.663 249.03 422.13L244.03 422.83C237.46 423.77 231.28 424.75 225.36 425.83C220.92 426.63 216.63 427.47 212.45 428.39C209.657 429.003 206.907 429.65 204.2 430.33C201.494 431.01 198.804 431.733 196.13 432.5C193.464 433.267 190.797 434.08 188.13 434.94C186.797 435.373 185.464 435.82 184.13 436.28C175.84 439.168 167.706 442.486 159.76 446.22C156.954 447.553 154.094 448.943 151.18 450.39C143.88 454.06 136.18 458.25 127.9 463.05L128.4 464.42L132.64 464.48C132.64 464.747 132.617 465.037 132.57 465.35C132.517 465.977 132.464 466.7 132.41 467.52C132.357 468.34 132.307 469.253 132.26 470.26C131.904 478.521 131.971 486.796 132.46 495.05C129.707 502.584 129.248 510.765 131.14 518.56C131.334 519.38 131.547 520.19 131.78 520.99C131.894 521.39 132.014 521.79 132.14 522.19C132.387 522.99 132.65 523.783 132.93 524.57C133.21 525.357 133.5 526.14 133.8 526.92C134.1 527.7 134.41 528.48 134.73 529.26C135.73 531.6 136.73 533.92 137.73 536.26C137.95 532.98 138.1 529.63 138.15 526.26V521.1C138.059 516.695 137.725 512.298 137.15 507.93C136.8 505.27 136.35 502.59 135.77 499.93C135.384 498.143 134.944 496.357 134.45 494.57C134.297 491.637 134.194 488.89 134.14 486.33V475.19C134.14 473.93 134.177 472.76 134.25 471.68C134.324 470.6 134.374 469.617 134.4 468.73C134.5 466.95 134.62 465.56 134.71 464.56L169.9 464.87V471.43C169.9 472.65 169.98 473.99 170.05 475.43C170.05 476.28 170.14 477.17 170.2 478.07C170.26 478.97 170.33 479.89 170.41 480.83C170.54 482.31 170.7 483.83 170.89 485.31V485.54C171.89 485.893 172.89 486.227 173.89 486.54L174.89 486.82C175.56 487.02 176.24 487.22 176.89 487.39L178.05 487.67C178.66 487.82 179.28 487.98 179.89 488.11L181.12 488.36C181.71 488.48 182.29 488.6 182.88 488.7L184.16 488.9C184.72 488.99 185.29 489.08 185.85 489.16L187.17 489.31L188.81 489.49L190.15 489.59L191.76 489.69H197.16C198.01 489.69 198.86 489.62 199.71 489.56L200.44 489.5L202.34 489.32L203.05 489.24C203.89 489.14 204.72 489.03 205.55 488.89H205.68C206.46 488.76 207.23 488.62 208 488.47L208.7 488.32L210.58 487.89L211.21 487.74C212.02 487.53 212.83 487.32 213.63 487.08L213.9 487C214.614 486.787 215.32 486.56 216.02 486.32L216.68 486.09C217.3 485.87 217.917 485.643 218.53 485.41L219.06 485.2C219.834 484.893 220.604 484.56 221.37 484.2L221.71 484.04C222.377 483.747 223.02 483.443 223.64 483.13L224.26 482.82C224.867 482.513 225.467 482.197 226.06 481.87L226.5 481.63C227.234 481.223 227.96 480.8 228.68 480.36L229.08 480.11C229.56 479.81 230.08 479.51 230.51 479.19L230.82 478.99L231.4 478.6C231.98 478.207 232.557 477.8 233.13 477.38L233.47 477.13C234.137 476.63 234.804 476.113 235.47 475.58L235.91 475.22C236.43 474.793 236.944 474.36 237.45 473.92L237.99 473.44C238.544 472.947 239.087 472.447 239.62 471.94L239.87 471.71C240.484 471.117 241.087 470.51 241.68 469.89L242.13 469.41C242.584 468.93 243.03 468.443 243.47 467.95L243.97 467.38C244.49 466.78 245 466.173 245.5 465.56L245.64 465.39C246.19 464.71 246.72 464.02 247.24 463.31L247.67 462.71C248.064 462.177 248.447 461.633 248.82 461.08L249.26 460.44C249.75 459.7 250.26 458.95 250.71 458.19L250.62 458.09C249.65 456.87 248.23 455.47 246.74 454.09H246.72Z" fill="white"/>
</g>
<defs>
<clipPath id="clip0_2_2838">
<rect width="1024" height="1024" fill="white"/>
</clipPath>
</defs>
</svg>

<svg xmlns="http://www.w3.org/2000/svg" viewBox="0 0 1024 1024">
   <circle cx="512" cy="512" r="512" style="fill:#f98012"/>
   <path d="M195.21 497a73.35 73.35 0 0 0 9.47-.62c0 .73-.06 1.47-.06 2.24v67.57h-34.38v-73.28a79.69 79.69 0 0 0 24.97 4.09Zm569.39 68.9v-193h-34.44v193Zm-44.8 0v-193h-33.5V466c-6.43-7.86-17.1-14.72-35.31-14.72-16.16 0-30.26 6.8-38.87 16.6q-14.6 16.57-14.6 41.18c0 16.6 5 30.57 14.91 41.8s23.09 16.91 39.49 16.91a57.72 57.72 0 0 0 18.72-3.37c7.36-2.5 12.6-5.74 15.66-9.86v11.36Zm-33.5-45.3q0 8-9.36 15.54c-6.24 5.05-12 7.55-17.35 7.55-8.8 0-15.79-3.68-20.9-11q-6.74-9.45-6.74-23c0-9.17 2.25-17 6.74-23.34a24.48 24.48 0 0 1 20.9-10.73c6.11 0 12.17 2.81 18 8.42s8.74 11.54 8.74 17.66ZM576 552.36q17.22-16.66 17.22-42.74c0-17.35-5.74-31.63-17.22-42.68s-25.89-16.6-43.3-16.6-31.82 5.55-43.18 16.6-17 25.27-17 42.68 5.68 31.7 17 42.74S515.28 569 532.68 569s31.82-5.6 43.32-16.64Zm-23.4-64.45c4.18 5.93 6.24 13.23 6.24 21.9s-2.18 15.91-6.55 21.9a24 24 0 0 1-39.18 0c-4.18-5.93-6.24-13.23-6.24-21.9s2.25-16.1 6.68-22.4 10.84-9.41 19.13-9.41c8.49 0 15.1 3.29 19.91 9.9Zm-101.09 64.45q17.22-16.66 17.22-42.74c0-17.35-5.74-31.63-17.22-42.68s-25.89-16.6-43.3-16.6-31.82 5.55-43.18 16.6-17 25.27-17 42.68 5.68 31.7 17 42.74S390.8 569 408.21 569s31.88-5.6 43.3-16.64Zm-23.4-64.45c4.18 5.93 6.24 13.23 6.24 21.9s-2.18 15.91-6.55 21.9a24 24 0 0 1-39.18 0c-4.18-5.93-6.24-13.23-6.24-21.9s2.25-16.1 6.68-22.4 10.85-9.41 19.15-9.41c8.55 0 15.16 3.29 19.9 9.9Zm377.23 32.19H896q0-31.07-15.66-49.48-16.85-19.93-47-20c-18.47 0-33.44 5.43-45 16.16S771 492.08 771 510.3q0 26.39 17.35 42.86c11.54 10.92 27.7 16.41 45.3 16.41 42.37 0 58.46-25.71 62.39-37.81l-36.25.31c-.44 4-8.49 13.85-25.52 13.85-17.53 0-28.14-17.66-28.89-25.83Zm.87-21.21a37.15 37.15 0 0 1 9.67-18.47 24 24 0 0 1 18-7.36 25.93 25.93 0 0 1 18.47 7.67 34.19 34.19 0 0 1 9.23 18.16ZM327.72 461.2q-13.48-10.2-36.5-10.2-25.18 0-34.69 12a75 75 0 0 1-20.39 21.36q3.18 5.2 3.19 14.29v67.57h34.38v-67.58q0-21.24 17.53-21.21c11.61 0 17.47 7.11 17.47 21.21v67.57h34.38v-71.57q-.02-22.09-15.37-33.44Zm-81-7.11c-1.15-1.06-2.33-2.1-3.45-3.08-.75-.65-1.48-1.26-2.16-1.83l-1.86-1.53c-1.38-1.12-2.27-1.81-2.27-1.81l34.13-25-.44-1.5q-5.77.71-11.17 1.4t-10.47 1.39l-5 .7c-6.57.94-12.75 1.92-18.67 3-4.44.8-8.73 1.64-12.91 2.56q-4.19.92-8.25 1.94t-8.07 2.17q-4 1.15-8 2.44-2 .65-4 1.34a252.85 252.85 0 0 0-24.37 9.94q-4.21 2-8.58 4.17c-7.3 3.67-15 7.86-23.28 12.66l.5 1.37 4.24.06q0 .4-.07.87-.08.94-.16 2.17t-.15 2.74a242.42 242.42 0 0 0 .2 24.79 40.59 40.59 0 0 0-1.32 23.51q.29 1.23.64 2.43.17.6.36 1.2.37 1.2.79 2.38t.87 2.35q.45 1.17.93 2.34c1 2.34 2 4.66 3 7 .22-3.28.37-6.63.42-10v-5.16a120.22 120.22 0 0 0-1-13.17c-.35-2.66-.8-5.34-1.38-8q-.58-2.68-1.32-5.36-.23-4.4-.31-8.24v-11.14q0-1.89.11-3.51t.15-2.95c.1-1.78.22-3.17.31-4.17l35.19.31v6.56c0 1.22.08 2.56.15 4 0 .85.09 1.74.15 2.64s.13 1.82.21 2.76c.13 1.48.29 3 .48 4.48v.23q1.5.53 3 1l1 .28c.67.2 1.35.4 2 .57l1.16.28c.61.15 1.23.31 1.84.44l1.23.25c.59.12 1.17.24 1.76.34l1.28.2c.56.09 1.13.18 1.69.26l1.32.15 1.64.18 1.34.1 1.61.1h5.4c.85 0 1.7-.07 2.55-.13l.73-.06 1.9-.18.71-.08c.84-.1 1.67-.21 2.5-.35h.13c.78-.13 1.55-.27 2.32-.42l.7-.15 1.88-.43.63-.15c.81-.21 1.62-.42 2.42-.66l.27-.08q1.07-.32 2.12-.68l.66-.23q.93-.33 1.85-.68l.53-.21q1.16-.46 2.31-1l.34-.16q1-.44 1.93-.91l.62-.31q.91-.46 1.8-.95l.44-.24q1.1-.61 2.18-1.27l.4-.25c.48-.3 1-.6 1.43-.92l.31-.2.58-.39q.87-.59 1.73-1.22l.34-.25q1-.75 2-1.55l.44-.36q.78-.64 1.54-1.3l.54-.48q.83-.74 1.63-1.5l.25-.23q.92-.89 1.81-1.82l.45-.48q.68-.72 1.34-1.46l.5-.57q.78-.9 1.53-1.82l.14-.17c.55-.68 1.08-1.37 1.6-2.08l.43-.6q.59-.8 1.15-1.63l.44-.64c.49-.74 1-1.49 1.45-2.25l-.09-.1c-.97-1.22-2.39-2.62-3.88-4Z" style="fill:#fff"/>
</svg>
